img/cards-03.svg

<svg width="120" height="100" viewBox="0 0 120 100" fill="none" xmlns="http://www.w3.org/2000/svg">
<path fill-rule="evenodd" clip-rule="evenodd" d="M50.3741 68.669C50.3741 76.8834 57.0971 83.5675 65.362 83.5675C73.6269 83.5675 80.3499 76.8834 80.3499 68.669V29.504C80.3499 21.2896 73.6269 14.6055 65.362 14.6055C57.0971 14.6055 50.3741 21.2896 50.3741 29.504V68.669ZM62.5268 29.504C62.5268 27.9505 63.8007 26.6882 65.362 26.6882C66.9233 26.6882 68.1972 27.9505 68.1972 29.504V68.669C68.1972 70.2225 66.9233 71.4848 65.362 71.4848C63.7968 71.4848 62.5268 70.2225 62.5268 68.669V29.504ZM36.5185 48.7407C36.5185 48.7407 46.6671 44.3675 46.6671 31.139C46.6671 18.2523 37.3768 15.0287 27.3137 15.0287L16 15.0909V83.1829H27.3137V55.8754L27.8303 57.7552L37.9672 83.3228H51.5879L36.5185 48.7407ZM35.3805 32.1916C35.3805 41.0235 27.3098 42.7907 27.3098 42.7907V23.4528C27.3098 23.4528 35.3805 22.7071 35.3805 32.1916ZM96 15.4444H83.8435V83.3268H96V15.4444Z" fill="#FFCC00"/>
<path d="M101 87.8318L12 88V12H101V87.8318Z" stroke="#082C4E" stroke-width="2" stroke-miterlimit="10" stroke-linecap="round" stroke-linejoin="round"/>
<path d="M14.999 84.9976L8.99878 85.004L9.00518 91.0043L15.0054 90.9978L14.999 84.9976Z" fill="#082C4E"/>
<path d="M103.999 85.0093L97.999 85.0157L98.0054 91.0157L104.005 91.0093L103.999 85.0093Z" fill="#082C4E"/>
<path d="M104.003 8.99365L97.9945 9.00006L98.0009 15.0089L104.01 15.0025L104.003 8.99365Z" fill="#082C4E"/>
<path d="M14.9999 8.99756L8.9978 9.00397L9.00421 15.0061L15.0063 14.9997L14.9999 8.99756Z" fill="#082C4E"/>
<path d="M62.999 8.99756L56.9988 9.00397L57.0052 15.0043L63.0054 14.9978L62.999 8.99756Z" fill="#082C4E"/>
<path d="M62 85.9995L58 86.0038L58.0043 90.0038L62.0043 89.9995L62 85.9995Z" fill="#082C4E"/>
</svg>

<svg width="120" height="100" fill="none" xmlns="http://www.w3.org/2000/svg"><path fill-rule="evenodd" clip-rule="evenodd" d="M50.374 68.669c0 8.214 6.723 14.898 14.988 14.898S80.35 76.883 80.35 68.67V29.504c0-8.214-6.723-14.899-14.988-14.899S50.374 21.29 50.374 29.505v39.165Zm12.153-39.165c0-1.553 1.274-2.816 2.835-2.816s2.835 1.263 2.835 2.816v39.165c0 1.553-1.274 2.816-2.835 2.816a2.827 2.827 0 0 1-2.835-2.816V29.504ZM36.519 48.741s10.148-4.373 10.148-17.602c0-12.887-9.29-16.11-19.353-16.11L16 15.09v68.092h11.314V55.875l.516 1.88 10.137 25.568h13.62L36.519 48.74ZM35.38 32.19c0 8.832-8.07 10.6-8.07 10.6V23.453s8.07-.746 8.07 8.739ZM96 15.445H83.844v67.883H96V15.444Z" fill="#FC0"/><path d="M101 87.832 12 88V12h89v75.832Z" stroke="#082C4E" stroke-width="2" stroke-miterlimit="10" stroke-linecap="round" stroke-linejoin="round"/><path d="m14.999 84.998-6 .006.006 6 6-.006-.006-6ZM103.999 85.01l-6 .006.006 6 6-.007-.006-6ZM104.003 8.994 97.995 9 98 15.01l6.009-.007-.007-6.008ZM15 8.998l-6.002.006.006 6.002L15.006 15 15 8.998ZM62.999 8.998l-6 .006.006 6 6-.006-.006-6ZM62 86l-4 .004.004 4 4-.005L62 86Z" fill="#082C4E"/></svg>
